X: 1
T: Circassian Circle
M: 4/4
L: 1/8
K: Gmaj
BA|GDBA G2B2|GDBA G2B2|ADcB A2c2|ABAG FDEF|
GDBA G2B2|GDBA G2B2|ABAG FDEF|G2B2 G2:|
|:dc|BGdc B2d2|BGBd gdBG|ADcB A2c2|ABAG FAdc| 
BGdc B2d2|BGBd gdBG|ABAG FDEF|G2B2 G2:|
